icon-themes/sifr_svg/cmd/sc_addprintarea.svg

<svg viewBox="0 0 16 16" xmlns="http://www.w3.org/2000/svg"><g fill="#555753"><path d="m2 2v7h6v-2h1v-5z" opacity=".35"/><path d="m0 0v11h1v4h5v-9h3v1h2v-1h3v1h1v-6h-4v-1zm2 2h3v3h-3zm4 0h3v3h-3zm5 0h3v3h-3zm-9 4h3v3h-3zm7 2v1h5v-1zm-7 3h3v3h-3zm6-1c-.554 0-1 .446-1 1v2c0 .554.446 1 1 1v-2h7v2c.554 0 1-.446 1-1v-2c0-.554-.446-1-1-1zm1 3v3h5v-3z"/></g></svg>

<svg xmlns="http://www.w3.org/2000/svg" viewBox="0 0 16 16">
  <path
     style="opacity:0.35;fill:#555753"
     d="M 2 2 L 2 9 L 8 9 L 8 7 L 9 7 L 9 2 L 2 2 z "
     />
  <path
     style="fill:#555753"
     d="m 0,0 v 11 h 1 v 4 H 6 V 6 h 3 v 1 h 2 V 6 h 3 v 1 h 1 V 1 H 11 V 0 Z M 2,2 H 5 V 5 H 2 Z M 6,2 H 9 V 5 H 6 Z m 5,0 h 3 V 5 H 11 Z M 2,6 H 5 V 9 H 2 Z m 7,2 v 1 h 5 V 8 Z m -7,3 h 3 v 3 H 2 Z m 6,-1 c -0.554,0 -1,0.446 -1,1 v 2 c 0,0.554 0.446,1 1,1 v -2 h 7 v 2 c 0.554,0 1,-0.446 1,-1 v -2 c 0,-0.554 -0.446,-1 -1,-1 z m 1,3 v 3 h 5 v -3 z"
     />
</svg>
